X:1
T:Title
%%score 1 2 3
L:1/8
M:4/2
K:F
V:1 treble-8 nm="Part_1"
V:2 treble-8 nm="Part_2"
V:3 bass nm="Part_3"
V:1
 z16 | z8 d6 d2 | d6 ^c2 d8 | z8 z2 fg a2 f2 | ga/g/fg/f/ e3 e d4 z2 AB | c2 A2 z2 Bc d4 c4 | %6
 ef/e/de/d/ ^c d2 c d6 de | f2 d2 z2 AB c2 A2 BA/B/cB/c/ | d3 d =B4 z8 | z16 | %10
 z4 z2 d3 d c2 B2 A2 | B2 A2 c4 A3 A B2 A2 | c4 A3 A B2 A2 c4 | A3 ^c d2 e2 f4 f<eg<f | %14
 e4 d4 z2 e4 e2 | f2 e2 f4 e4 e2 g2- | g2 ^f2 z2 d3 d c2 B2 A2 | B2 A2 c4 A4 z4 |[M:4/4] z4 z2 G2 | %19
[M:4/2] B2 A2 c4 A2 ^c2 d2 e2 | f4 f<eg<f e8 | d4 A6 A2 B2 c2 | d8 c4 f4- | f2 f2 _e4 d8 | c8 z8 | %25
 z16 | z16 | =B2 c2 d<c d<B c4 _B4 | B2 c2 d<c d<=B c2 c2 e2 f2 | g<f g<e f4 e8 | z16 | d12 c4 | %32
 B3 c d8 ^c4 | d8 z2 f2 d2 c2 |[M:6/2] B3 B A6 c3 d e2 f<ef<g e4- |[M:4/2] e2 c3 B A4 f3 e d2- | %36
 d2 g3 c c2 c4 d4 |[M:3/2] z12 | z12 | z12 | z12 | z12 | z12 | z12 | z12 | F4 c8 | A12 | A4 d8 | %48
 =B12 | d8 c2 B2 | A8 A4 | f8 e2 d2 | c8 c4 | d4 e4 c4 | d6 e2 f2 g2 | _e2 f2 d8 | %56
[M:4/2] e8 g6 fe | d2 d2 a6 gf e4 | e4 z4 z2 e2 f2 d2 | e8 d2 ^f2 g2 e2 | ^f4 g4- g4 f4 | g16 |] %62
V:2
 d6 d2 d6 ^c2 | d8 z2 fg a2 f2 | ga/g/fg/f/ e3 e ^f8 | z8 d6 d2 | d6 ^c2 d2 de f2 d2 | %5
 z2 ef g4 f2 fg a2 f2 | ga/g/fg/f/ e3 e d2 de f2 d2 | z2 de f2 d2 ed/e/fe/f/ g4- | %8
 g2 ^f2 g4 z2 e4 e2 | f2 e2 f4 e4 e2 g2- | g2 ^f2 g4 z8 | z16 | z16 | z16 | z8 z2 ^c4 c2 | %15
 d2 ^c2 d4 c6 d2 | A4 G4 z8 | z8 z2 ^f2 g2 d2 |[M:4/4] _e4 d4 |[M:4/2] z8 z2 A2 =B2 ^c2 | %20
 d4 d<ce<d ^c2 d4 c2 | d8 z8 | z16 | z8 z8 | z4 G6 G2 A2 B2 | c8 A4 c4- | c2 c2 B4 A8 | %27
 G8 e2 f2 g<f g<e | f8 e4 c2 d2 | e<d e<c d8 ^c4 | d12 c4 | B3 B A4 B4 A4 | G6 FG A6 A2 | ^F8 z8 | %34
[M:6/2] z16 z8 |[M:4/2] z16 | z16 |[M:3/2] A4 d8 | =B12 | d4 g8 | e12 | g8 f2 e2 | f8 d4 | %43
 e4 f4 d4 | e6 f2 g4 | f8 e4 | f12 | c4 f8 | d12 | z12 | z12 | d8 c2 B2 | A8 A4 | B4 c4 A4 | %54
 B6 c2 d4 | c8 B4 |[M:4/2] c4 g6 fe d2 d2 | f6 ed ^c4 c4- | c2 e2 f2 d2 e4 d4- | d4 ^c4 d4 z4 | %60
 z2 d2 _e2 c2 d8 | d16 |] %62
V:3
 D,6 B,,2 G,,4 A,,4 | B,,6 C,2 D,6 D,2 | G,,4 A,,4 D,6 D,2 | D,6 ^C,2 D,8 | G,,4 A,,4 D,6 D,2 | %5
 A,,4 G,,4 D,4 F,4 | C,2 D,2 A,4 D,6 B,,C, | D,2 B,,C, D,4 C,4 G,,4 | D,4 G,,4 C,4 A,,4- | %9
 A,,2 A,,2 A,,4 A,,6 G,,2 | A,,4 G,,4 ^F,,4 G,,2 D,2 | G,,2 D,2 _E,4 D,8 | _E,4 D,4 G,,2 D,2 E,4 | %13
 D,2 A,,2 G,,4 D,8 | A,,4 D,,E,,F,,D,, A,,4- A,,4 | A,,4 D,,E,,F,,G,, A,,4 A,,2 B,,2 | %16
 D,4 G,4 G,,2 A,,2 B,,2 D,2 | G,,2 D,2 _E,4 D,4 G,,4 |[M:4/4] C,4 G,,4 | %19
[M:4/2] D,4 _E,4 D,2 A,,2 G,,2 E,,2 | D,,4 D,4 A,,8 | D,8 D,4 D,2 C,2 | %22
 B,,3 C, D,2 B,,2 F,,3 G,, A,,2 F,,2 | G,,4 C,4 G,2 F,2 G,4 | C,6 D,2 E,4 D,4 | %25
 C,3 D, E,2 C,2 F,,3 G,, A,,2 F,,2 | G,,8 D,2 ^C,2 D,4 | G,,8 A,,4 G,,4 | D,8 C,8- | %29
 C,4 F,2 G,2 A,6 G,2 | ^F,4 G,4 D,8 | G,,4 ^F,,4 G,,8 | G,,4 B,,4 A,,8 | D,6 C,2 B,,6 A,,2 | %34
[M:6/2] G,,4 D,3 E, F,6 C,2 D,4 C,4 |[M:4/2] C,3 B,, A,,3 G,, F,,3 E,, D,,2 D,C, | %36
 B,,A,,G,,F,, E,,2 F,,2 A,,4 G,,4 |[M:3/2] D,6 B,,2 C,2 D,2 | G,,12 | G,6 E,2 F,2 G,2 | C,12 | %41
 G,,4 B,,4 C,4 | D,8 B,,4 | C,4 A,,4 B,,4 | C,12 | D,4 C,8 | F,,12 | F,,4 D,,8 | G,,12 | %49
 G,,4 B,,4 C,4 | D,8 D,4 | B,,4 D,4 E,4 | F,8 F,4 | D,4 C,4 F,4 | B,,12 | C,4 G,8 | %56
[M:4/2] C,8 G,,4 G,,A,,B,,C, | D,6 C,B,, A,,8 | A,,4 D,4 A,,4 D,,4 | A,,8 D,4 G,,4 | %60
 D,4 C,2 _E,2 D,8 | G,,16 |] %62

